public/buttons/naked-short-3.svg

<svg width="29" height="13" viewBox="0 0 29 13" fill="none" xmlns="http://www.w3.org/2000/svg">
<g clip-path="url(#clip0_13_11)">
<path d="M0.971191 12.5019V0.501907H24.5079L28.9712 6.44503L24.5079 12.5019H0.971191Z" stroke="black" stroke-linecap="round" stroke-linejoin="round"/>
<path d="M26 2.5L18 12.5L17 0.5L9 12.5L13 0.5L5 12.5L4 0.5" stroke="black" stroke-linecap="round" stroke-linejoin="round"/>
</g>
<defs>
<clipPath id="clip0_13_11">
<rect width="29" height="13" fill="white"/>
</clipPath>
</defs>
</svg>

<svg width="29" height="13" fill="none" xmlns="http://www.w3.org/2000/svg">
  <g clip-path="url(#a)">
    <path d="M.971 12.502v-12h23.537l4.463 5.943-4.463 6.057H.97Z"/>
    <path d="m26 2.5-8 10-1-12-8 12 4-12-8 12-1-12" stroke="#000" stroke-linecap="round" stroke-linejoin="round"/>
  </g>
</svg>
